X:108
T:(Air De La Crousado)
M:3/4
L:1/4
N:La Bourre 4th edition 1929, page 116
Z:Steve Mansfield www.lesession.co.uk June 2012
K:F
z [DFA] [DFA] | z [DFA] [DFA] | z [DFA] [DFA] !segno!|| c2 A/B/ | c2 A/B/ | 
c B A | G3 | G A B | c > d c | B A G | (A2 F) |
c2 A/B/ | c2 A/B/ | c B A | G3 | G A B | c d c | 
B A G | F2 F |: G/A/ B c | G2 c | d/c/ B A | G/B/ A F | 
G/A/ B c | G2 c | d/c/ B A | G2 F | G/A/ B c | G2 c |
d/c/ B A | G/B/ A F | G/A/ B c | G2 c | d/c/ B A | 
G2 F :: G/A/ B c | F2 G | G/A/ F E | F/G/ A F | 
G/A/ B c | F2 G | G/A/ F E | F2 F | G/A/ B c | F2 G |
G/A/ F E | F/G/ A F | G/A/ B c | F2 G | G/A/ F E | F2 F !segno! :|
